assets/img/home/home2.svg

<?xml version="1.0" encoding="UTF-8"?>
<svg width="16px" height="13px" viewBox="0 0 16 13" version="1.1" xmlns="http://www.w3.org/2000/svg" xmlns:xlink="http://www.w3.org/1999/xlink">
    <!-- Generator: Sketch 52.4 (67378) - http://www.bohemiancoding.com/sketch -->
    <title>home2</title>
    <desc>Created with Sketch.</desc>
    <g id="Pages" stroke="none" stroke-width="1" fill="none" fill-rule="evenodd">
        <g id="Homepage@2x" transform="translate(-561.000000, -1801.000000)" fill="#FFFFFF">
            <g id="Group-15" transform="translate(532.000000, 1796.000000)">
                <g id="Group-16">
                    <g id="home2" transform="translate(29.000000, 5.000000)">
                        <path d="M15.8778947,5.83238849 L8.17998286,0.0602076452 C8.07326297,-0.0200692151 7.92670313,-0.0200692151 7.81982324,0.0602076452 L0.12207137,5.83238849 C-0.0118484881,5.93285571 -0.0400084584,6.12377572 0.0596714364,6.25913188 C0.159191331,6.39432651 0.348151132,6.42259301 0.48239099,6.32212579 L1.40351002,5.63145405 L1.40351002,12.4948833 C1.40351002,12.6631901 1.53870987,12.8 1.7055897,12.8 C1.87246952,12.8 2.00782938,12.6633517 2.00782938,12.4948833 L2.00782938,5.17838244 L7.99998305,0.685139582 L13.9926167,5.17854396 L13.9926167,12.1899282 L10.4177405,12.1899282 L10.4177405,6.89133234 C10.4177405,6.722864 10.2823806,6.58637719 10.1155008,6.58637719 L5.88446528,6.58637719 C5.71758546,6.58637719 5.5822256,6.722864 5.5822256,6.89133234 L5.5822256,12.1899282 L1.7055897,12.1899282 C1.53870987,12.1899282 1.40351002,12.3265765 1.40351002,12.4950448 C1.40351002,12.6633517 1.53870987,12.8 1.7055897,12.8 L14.2948564,12.8 C14.4617362,12.8 14.5969361,12.6633517 14.5969361,12.4950448 L14.5969361,5.63161558 L15.5177351,6.32212579 C15.5718151,6.36266803 15.635015,6.38237382 15.6975749,6.38237382 C15.7900548,6.38237382 15.8810947,6.33973178 15.9404547,6.25913188 C16.0399746,6.12393725 16.0118146,5.93285571 15.8778947,5.83238849 Z M6.18670496,7.1962875 L9.81358113,7.1962875 L9.81358113,12.1899282 L6.18670496,12.1899282 L6.18670496,7.1962875 Z" id="Shape" fill-rule="nonzero"></path>
                        <path d="M9.6,4.00009061 C9.6,3.11777564 8.88228364,2.4 8,2.4 C7.11771636,2.4 6.4,3.11777564 6.4,4.00009061 C6.4,4.88222436 7.11771636,5.6 8,5.6 C8.88228364,5.6 9.6,4.88222436 9.6,4.00009061 Z M7.08436792,4.00009061 C7.08436792,3.49523756 7.49524241,3.08443287 8,3.08443287 C8.50475759,3.08443287 8.91563208,3.49523756 8.91563208,4.00009061 C8.91563208,4.50494365 8.50493883,4.91556713 8,4.91556713 C7.49506117,4.91556713 7.08436792,4.50494365 7.08436792,4.00009061 Z" id="Shape" fill-rule="nonzero"></path>
                        <circle id="Oval" cx="9.2" cy="10.8" r="1"></circle>
                    </g>
                </g>
            </g>
        </g>
    </g>
</svg>

<?xml version="1.0" encoding="UTF-8" standalone="no"?>
<svg xmlns="http://www.w3.org/2000/svg" height="13px" width="16px" version="1.1" xmlns:xlink="http://www.w3.org/1999/xlink" viewBox="0 0 16 13"><!-- Generator: Sketch 52.4 (67378) - http://www.bohemiancoding.com/sketch -->
 <title>home2</title>
 <desc>Created with Sketch.</desc>
 <g id="Pages" fill-rule="evenodd" fill="none">
  <g id="Homepage@2x" fill="#fff" transform="translate(-561 -1801)">
   <g id="Group-15" transform="translate(532 1796)">
    <g id="Group-16">
     <g id="home2" transform="translate(29 5)">
      <path id="Shape" fill-rule="nonzero" d="m15.878 5.8324l-7.698-5.7722c-0.1067-0.080269-0.2533-0.080269-0.3602 0.000008l-7.6977 5.7722c-0.13395 0.1005-0.16211 0.2914-0.062429 0.4267 0.099519 0.1352 0.28848 0.1635 0.42272 0.063l0.92111-0.6906v6.8635c0 0.168 0.1352 0.305 0.3021 0.305s0.3022-0.137 0.3022-0.305v-7.3166l5.9922-4.4933 5.993 4.4934v7.0115h-3.575v-5.2987c0-0.1684-0.136-0.3049-0.302-0.3049h-4.2315c-0.1669 0-0.3023 0.1365-0.3023 0.3049v5.2987h-3.8766c-0.1669 0-0.3021 0.137-0.3021 0.305s0.1352 0.305 0.3021 0.305h12.589c0.167 0 0.302-0.137 0.302-0.305v-6.8634l0.921 0.6905c0.054 0.0406 0.117 0.0603 0.18 0.0603 0.092 0 0.183-0.0427 0.242-0.1233 0.1-0.1352 0.072-0.3262-0.062-0.4267zm-9.6913 1.3639h3.6269v4.9937h-3.6269v-4.9937z"/>
      <path id="Shape" fill-rule="nonzero" d="m9.6 4.0001c0-0.8823-0.7177-1.6001-1.6-1.6001s-1.6 0.7178-1.6 1.6001c0 0.8821 0.7177 1.5999 1.6 1.5999s1.6-0.7178 1.6-1.5999zm-2.5156 0c0-0.5049 0.4108-0.9157 0.9156-0.9157s0.9156 0.4108 0.9156 0.9157c0 0.5048-0.4107 0.9155-0.9156 0.9155s-0.9156-0.4107-0.9156-0.9155z"/>
      <circle id="Oval" cy="10.8" cx="9.2" r="1"/>
     </g>
    </g>
   </g>
  </g>
 </g>
</svg>
